X:1922
T:Bourrée du gagne-pain
R:Bourrée à 3 temps
C:trad
A:Morvan
O:France
Z:S. Piron
M:3/4
L:1/4
Q:1/4=180
K:C
e/2f/2|ga/2g/2f/2e/2|g2 d/2e/2|f g/2f/2e/2d/2|
ece/2f/2|ga/2g/2f/2e/2|g2 d/2e/2|f g/2f/2e/2d/2|c2:|
|:e|dfe|c2d/2e/2|fg/2f/2e/2d/2|ece|dfe|c2d/2e/2|fg/2f/2e/2d/2|c2:||


